assets/icons/qvision/bluetooth.svg

<svg xmlns="http://www.w3.org/2000/svg" height="24" viewBox="0 0 24 24" width="24"><path d="M0 0h24v24H0z" fill="none"/><path d="M17.71 7.71L12 2h-1v7.59L6.41 5 5 6.41 10.59 12 5 17.59 6.41 19 11 14.41V22h1l5.71-5.71-4.3-4.29 4.3-4.29zM13 5.83l1.88 1.88L13 9.59V5.83zm1.88 10.46L13 18.17v-3.76l1.88 1.88z"/></svg>

<svg width="24" height="24" viewBox="0 0 24 24" fill="none" xmlns="http://www.w3.org/2000/svg">
<g clip-path="url(#clip0_147_2352)">
<path d="M17.71 7.71L12 2H11V9.59L6.41 5L5 6.41L10.59 12L5 17.59L6.41 19L11 14.41V22H12L17.71 16.29L13.41 12L17.71 7.71ZM13 5.83L14.88 7.71L13 9.59V5.83ZM14.88 16.29L13 18.17V14.41L14.88 16.29Z" fill="#323232"/>
</g>
<defs>
<clipPath id="clip0_147_2352">
<rect width="24" height="24" fill="white"/>
</clipPath>
</defs>
</svg>
